src/assets/img/logo-hacktoberfest--mark.svg

<svg width="81" height="82" viewBox="0 0 81 82" fill="none" xmlns="http://www.w3.org/2000/svg">
<path d="M44.947 54.3223H18.2458V63.2227H44.947V54.3223Z" fill="#183717"/>
<path d="M62.718 27.6389H53.8176V63.2405H62.718V27.6389Z" fill="#183717"/>
<path d="M36.1948 18.7207H27.2944V54.3223H36.1948V18.7207Z" fill="#183717"/>
<path d="M27.2944 27.6211H18.394V36.5215H27.2944V27.6211Z" fill="#183717"/>
<path d="M53.8176 36.5393H44.9172V45.4397H53.8176V36.5393Z" fill="#183717"/>
<path d="M71.6184 54.3401H62.718V63.2405H71.6184V54.3401Z" fill="#183717"/>
<path d="M18.3051 81.3379L9.19707 72.3782V9.96868H71.6036L80.7117 18.9284V0.644043H0V81.3557L18.3051 81.3379Z" fill="#183717"/>
</svg>

<svg xmlns="http://www.w3.org/2000/svg" width="81" height="82" fill="none"><path fill="#183717" d="M44.947 54.322H18.246v8.9h26.701zM62.718 27.639h-8.9V63.24h8.9zM36.195 18.72h-8.9v35.602h8.9zM27.294 27.621h-8.9v8.9h8.9zM53.818 36.54h-8.9v8.9h8.9z"/><path fill="#183717" d="M71.618 54.34h-8.9v8.9h8.9zM18.305 81.338l-9.108-8.96V9.968h62.407l9.108 8.96V.644H0v80.712z"/></svg>
